X:1
T:Polska efter Gammelbo-Lars
R:Polska
O:Bergsjö, Hälsingland
S: efter Helmer Larsson
S: efter Gammelbo-Lars
Z: LP
M:3/4
L:1/8
K:Dm
AA/^G/ (A^c) ce|(ef) d4|dd/^c/ (df) {f/g/}af|{f/g/}(fe) e4|
AA/^G/ (A^c) c{c/}e|(ef) d4|{/e/}dd/^c/ (df) {f/g/}af|{f/}e^c/e/ [D4d4]:|
|:(af) {f/g/}fe/f/ {f/g/}aa|(bg) {g/a/}g^f/g/ bb|{a/b/}a(g {f/g/}fe) df|e^c/e/ (dA) FA|
(af) {f/g/}fe/f/ {f/}aa|(bg) {g/a/}g^f/g/ bb|{a/b/}a(g {f/g/}fe) df|e^c/e/ [D4d4]:|

